packages/core/src/svgs/tokens/mono/SPACE.svg

<svg width="24" height="24" viewBox="0 0 24 24" fill="none" xmlns="http://www.w3.org/2000/svg">
<path fill-rule="evenodd" clip-rule="evenodd" d="M14.5713 18.7812C16.2285 18.3012 17.6284 16.8442 18.4112 15.4327C19.0977 14.156 19.392 12.7048 19.2569 11.2614C19.2351 11.0375 19.1872 10.817 19.114 10.6043C19.0797 10.4899 19.3712 10.1014 19.4854 9.94715L19.5197 9.90142C20.2217 8.9401 20.9151 7.97247 21.5997 6.99866C21.7198 6.8463 21.8231 6.68156 21.9082 6.50725L21.9826 6.43867C22.0111 6.4044 22.0054 6.38725 21.9596 6.39297C20.7369 6.44439 19.4912 6.51867 18.2169 6.61582C17.7998 6.6501 17.3712 6.66154 16.937 6.65582C16.8926 6.65555 16.8484 6.64979 16.8055 6.63867C16.7801 6.63083 16.7579 6.61475 16.7427 6.59296C15.7541 5.34157 12.2399 4.45588 10.1372 5.03871C9.10573 5.3106 8.14373 5.79796 7.31442 6.4687C6.48511 7.13944 5.80735 7.97831 5.32585 8.93003C4.66848 10.3155 4.4607 11.8719 4.73157 13.3813C4.93729 14.6442 3.81732 15.7813 2.86305 16.7527C2.54306 17.0784 2.23451 17.3812 2.01165 17.6669C1.98879 17.7069 2.00022 17.7241 2.04022 17.7184C2.67338 17.6819 3.30584 17.6343 3.93731 17.5755C4.93729 17.4841 5.93726 17.3984 6.94294 17.4041C7.06293 17.4041 7.14293 17.4727 7.2115 17.5412L7.30865 17.6269C8.35259 18.3572 9.54892 18.8405 10.807 19.0405C12.0652 19.2404 13.3524 19.1517 14.5713 18.7812ZM7.65721 15.3298C7.8972 15.3527 8.06863 15.3927 8.24577 15.5755C8.74713 16.0731 9.34359 16.4644 9.99957 16.7263C10.6556 16.9882 11.3575 17.1151 12.0636 17.0996C12.7699 17.0842 13.4656 16.9266 14.1095 16.6363C14.7534 16.3459 15.3322 15.9289 15.8113 15.4098C16.3734 14.77 16.7697 14.0017 16.965 13.1727C17.1602 12.3436 17.1487 11.4792 16.9312 10.6557C16.874 10.5014 16.817 10.3299 16.874 10.2214L17.697 8.75861C17.6912 8.74148 17.674 8.73004 17.657 8.73004C17.017 8.78718 16.4741 8.77004 16.017 8.68433C15.7883 8.63861 15.6627 8.50149 15.5256 8.35862C14.8486 7.74435 14.028 7.31036 13.1392 7.09666C12.2504 6.88296 11.3222 6.89641 10.44 7.1358C10.3142 7.17008 10.2057 7.22152 10.0914 7.27294L9.89144 7.36437C7.66292 8.2272 6.50867 10.6099 6.84581 12.8499C6.85723 12.9471 6.8858 13.0499 6.91438 13.1528C6.97723 13.4043 7.0458 13.6728 6.96008 13.8956C6.77289 14.3805 6.52109 14.8379 6.21153 15.2555C6.21056 15.2675 6.21333 15.2794 6.21949 15.2897C6.22564 15.2999 6.23485 15.3079 6.24582 15.3127C6.25153 15.3242 6.26868 15.3242 6.2801 15.3242C6.75438 15.2785 7.2115 15.2842 7.66292 15.3242L7.65721 15.3298Z" fill="white"/>
<path d="M3.42853 8.85585C4.21749 8.85585 4.85707 8.21628 4.85707 7.42731C4.85707 6.63836 4.21749 5.99878 3.42853 5.99878C2.63958 5.99878 2 6.63836 2 7.42731C2 8.21628 2.63958 8.85585 3.42853 8.85585Z" fill="white"/>
</svg>

<svg xmlns="http://www.w3.org/2000/svg" width="24" height="24" fill="none" viewBox="0 0 24 24">
    <path fill="#fff" fill-rule="evenodd" d="M14.571 18.781c1.658-.48 3.057-1.937 3.84-3.348a7.36 7.36 0 0 0 .846-4.172 3 3 0 0 0-.143-.657c-.034-.114.257-.503.371-.657l.035-.046Q20.573 8.46 21.6 7q.18-.23.308-.492l.075-.068q.043-.054-.023-.046-1.833.077-3.743.223-.627.05-1.28.04a.5.5 0 0 1-.132-.017.12.12 0 0 1-.062-.046c-.989-1.251-4.503-2.137-6.606-1.554a7.55 7.55 0 0 0-4.811 3.89 7.35 7.35 0 0 0-.594 4.451c.205 1.263-.915 2.4-1.869 3.372-.32.325-.628.628-.851.914q-.033.06.028.051a54 54 0 0 0 1.897-.142c1-.092 2-.178 3.006-.172.12 0 .2.069.269.137l.097.086a8.4 8.4 0 0 0 7.262 1.154M7.657 15.33c.24.023.412.063.589.245a5.256 5.256 0 0 0 7.565-.165 5.2 5.2 0 0 0 1.12-4.754c-.057-.155-.114-.326-.057-.435l.823-1.462a.04.04 0 0 0-.04-.029c-.64.057-1.183.04-1.64-.046-.229-.045-.354-.183-.491-.325a5.45 5.45 0 0 0-5.086-1.223c-.126.034-.234.086-.349.137l-.2.091c-2.228.863-3.382 3.246-3.045 5.486.011.097.04.2.068.303.063.251.132.52.046.743a5.8 5.8 0 0 1-.748 1.36.06.06 0 0 0 .034.057c.006.011.023.011.034.011.474-.046.931-.04 1.383 0z" clip-rule="evenodd"/>
    <path fill="#fff" d="M3.429 8.856a1.429 1.429 0 1 0 0-2.857 1.429 1.429 0 0 0 0 2.857"/>
</svg>
